Sources/FrostedUI/Resources/Icons.xcassets/shop32.imageset/shop-32.svg

<svg width="32" height="32" viewBox="0 0 32 32" fill="none" xmlns="http://www.w3.org/2000/svg" data-fui-icon="true">
  <path
    d="M24.6494 1L24.8975 1.00488C27.4517 1.09831 29.7437 2.6295 30.8018 4.97168L31.4766 6.46484C31.8216 7.22869 32 8.05733 32 8.89551V8.99121C32 11.2266 30.7369 13.1666 28.8857 14.1377V24.8203C28.8857 27.7786 26.4876 30.1767 23.5293 30.1768H20.4277C20.4213 30.1769 20.4147 30.1777 20.4082 30.1777C20.4017 30.1777 20.3952 30.1769 20.3887 30.1768H11.5957C11.5893 30.1769 11.5826 30.1777 11.5762 30.1777C11.5696 30.1777 11.5631 30.1769 11.5566 30.1768H8.45508C5.49679 30.1767 3.09863 27.7786 3.09863 24.8203V14.1289C1.2561 13.1551 0 11.2202 0 8.99121V8.89551C1.55678e-05 8.05733 0.17836 7.22869 0.523438 6.46484L1.19824 4.97168C2.25635 2.6295 4.54835 1.09831 7.10254 1.00488L7.35059 1H24.6494ZM20.9258 11.4414C20.1542 13.3941 18.2516 14.7998 15.9922 14.7998L15.7002 14.792C13.5759 14.6771 11.8072 13.3169 11.0654 11.457C10.1276 13.4578 8.10201 14.7997 5.80859 14.7998L5.50977 14.792C5.19881 14.7763 4.8948 14.7337 4.59863 14.6709V24.8203C4.59863 26.9502 6.32521 28.6767 8.45508 28.6768H10.8262V20.9385C10.8263 20.0304 11.5626 19.2942 12.4707 19.2939H19.5137C20.4218 19.2942 21.1581 20.0303 21.1582 20.9385V28.6768H23.5293C25.6592 28.6767 27.3857 26.9502 27.3857 24.8203V14.6748C27.0945 14.7357 26.7957 14.7765 26.4902 14.792L26.1914 14.7998C23.8918 14.7997 21.8602 13.4512 20.9258 11.4414ZM12.4707 20.7939C12.391 20.7942 12.3263 20.8588 12.3262 20.9385V28.6768H19.6582V20.9385C19.6581 20.8588 19.5934 20.7942 19.5137 20.7939H12.4707ZM12.7549 3.62695L12.209 9.12207C11.9869 11.3593 13.744 13.2996 15.9922 13.2998C18.2405 13.2998 19.9984 11.3593 19.7764 9.12207L19.2139 3.46973L19.0283 2.5H12.9717L12.7549 3.62695ZM7.35059 2.5C5.28718 2.5 3.41506 3.70852 2.56543 5.58887L1.89062 7.08203C1.63322 7.65181 1.50002 8.27028 1.5 8.89551V8.99121C1.5 11.3706 3.42922 13.2998 5.80859 13.2998C7.87388 13.2996 9.64875 11.8338 10.0391 9.80566L11.2666 3.4248L11.3594 2.5H7.35059ZM20.7002 3.25977L21.9609 9.80566C22.3513 11.8338 24.1261 13.2996 26.1914 13.2998C28.5708 13.2998 30.5 11.3706 30.5 8.99121V8.89551C30.5 8.27028 30.3668 7.65181 30.1094 7.08203L29.4346 5.58887C28.5849 3.70852 26.7128 2.5 24.6494 2.5H20.626L20.7002 3.25977Z"
    fill="currentColor"
  />
</svg>

<svg xmlns="http://www.w3.org/2000/svg" width="32" height="32" fill="none" data-fui-icon="true" viewBox="0 0 32 32"><path fill="currentColor" d="m24.65 1 .248.005a6.75 6.75 0 0 1 5.904 3.967l.675 1.493c.345.764.523 1.592.523 2.43v.096a5.81 5.81 0 0 1-3.114 5.147V24.82a5.356 5.356 0 0 1-5.357 5.357H8.456a5.357 5.357 0 0 1-5.357-5.357V14.13A5.81 5.81 0 0 1 0 8.99v-.095c0-.839.178-1.667.523-2.431l.675-1.493a6.75 6.75 0 0 1 5.905-3.967L7.35 1zm-3.724 10.441a5.3 5.3 0 0 1-4.934 3.359l-.292-.008a5.3 5.3 0 0 1-4.635-3.335A5.81 5.81 0 0 1 5.81 14.8l-.3-.008a6 6 0 0 1-.91-.121v10.15a3.857 3.857 0 0 0 3.856 3.856h2.371v-7.738c0-.909.737-1.645 1.645-1.645h7.043c.908 0 1.644.736 1.644 1.645v7.738h2.371a3.856 3.856 0 0 0 3.857-3.857V14.675a6 6 0 0 1-.896.117l-.299.008a5.81 5.81 0 0 1-5.265-3.359m-8.455 9.353a.145.145 0 0 0-.145.145v7.738h7.332v-7.738a.145.145 0 0 0-.144-.145zm.284-17.167-.546 5.495a3.802 3.802 0 1 0 7.567 0l-.562-5.652-.186-.97h-6.056zM7.35 2.5a5.25 5.25 0 0 0-4.786 3.089l-.674 1.493A4.4 4.4 0 0 0 1.5 8.896v.095a4.309 4.309 0 0 0 8.54.815l1.227-6.381.092-.925zm13.35.76 1.26 6.546A4.309 4.309 0 0 0 30.5 8.99v-.095c0-.626-.133-1.244-.39-1.814l-.675-1.493A5.25 5.25 0 0 0 24.649 2.5h-4.023z"/></svg>
